app/static/test.svg

<svg width="10000" height="250" style="position: absolute; left: -964.27px; top: 0px;"><path fill="none" fill-opacity="1" d="M 0,0   C 0 132.86250584527463, 101.15007805606942 0, 101.15007805606942 0  C 101.15007805606942 128.2152294224188, 202.5067461811705 0, 202.5067461811705 0  C 202.5067461811705 120.61188589638131, 307.85010558836336 0, 307.85010558836336 0  C 307.85010558836336 117.04295424038582, 410.724461459373 0, 410.724461459373 0  C 410.724461459373 120.78969375998302, 515.2562707392359 0, 515.2562707392359 0  C 515.2562707392359 128.40736941982976, 619.9215427737636 0, 619.9215427737636 0  C 619.9215427737636 132.89232534897423, 722.4621110508166 0, 722.4621110508166 0  C 722.4621110508166 130.12111374959488, 814.7236100566058 0, 814.7236100566058 0  C 814.7236100566058 122.64157378606409, 919.738586519434 0, 919.738586519434 0  C 919.738586519434 117.33036000718623, 1017.9096106784837 0, 1017.9096106784837 0" stroke="rgb(0, 168, 255)" stroke-width="2"></path></svg>

<svg height="250" width="10000"><path d="m0 0c0 132.86250585 101.15007806 0 101.15007806 0 0 128.21522942 101.35666812 0 101.35666812 0 0 120.6118859 105.34335941 0 105.34335941 0 0 117.04295424 102.87435587 0 102.87435587 0 0 120.78969376 104.53180928 0 104.53180928 0 0 128.40736942 104.66527203 0 104.66527203 0 0 132.89232535 102.54056828 0 102.54056828 0 0 130.12111375 92.26149901 0 92.26149901 0 0 122.64157379 105.01497646 0 105.01497646 0 0 117.33036001 98.17102416 0 98.17102416 0" fill="none" stroke="#00a8ff" stroke-width="2"/></svg>
